src/symbolic/actions/system-lock-screen-symbolic.svg

<?xml version="1.0" encoding="UTF-8" standalone="no"?>
<svg
   xmlns:dc="http://purl.org/dc/elements/1.1/"
   xmlns:cc="http://creativecommons.org/ns#"
   xmlns:rdf="http://www.w3.org/1999/02/22-rdf-syntax-ns#"
   xmlns:svg="http://www.w3.org/2000/svg"
   xmlns="http://www.w3.org/2000/svg"
   xmlns:sodipodi="http://sodipodi.sourceforge.net/DTD/sodipodi-0.dtd"
   xmlns:inkscape="http://www.inkscape.org/namespaces/inkscape"
   height="16"
   width="16"
   version="1.1"
   id="svg6"
   sodipodi:docname="system-lock-screen-symbolic.svg"
   inkscape:version="0.92.4 (5da689c313, 2019-01-14)">
  <metadata
     id="metadata12">
    <rdf:RDF>
      <cc:Work
         rdf:about="">
        <dc:format>image/svg+xml</dc:format>
        <dc:type
           rdf:resource="http://purl.org/dc/dcmitype/StillImage" />
      </cc:Work>
    </rdf:RDF>
  </metadata>
  <defs
     id="defs10" />
  <sodipodi:namedview
     pagecolor="#ffffff"
     bordercolor="#666666"
     borderopacity="1"
     objecttolerance="10"
     gridtolerance="10"
     guidetolerance="10"
     inkscape:pageopacity="0"
     inkscape:pageshadow="2"
     inkscape:window-width="1366"
     inkscape:window-height="706"
     id="namedview8"
     showgrid="true"
     inkscape:zoom="10.429825"
     inkscape:cx="13.970431"
     inkscape:cy="5.5715903"
     inkscape:window-x="0"
     inkscape:window-y="32"
     inkscape:window-maximized="1"
     inkscape:current-layer="svg6">
    <inkscape:grid
       type="xygrid"
       id="grid822" />
  </sodipodi:namedview>
  <path
     inkscape:connector-curvature="0"
     d="M 7,0 C 4.98434,0 3,2.02594 3,4 V 6 H 4 V 4 C 4,2.338 5.338,1 7,1 h 2 c 1.662,0 3,1.338 3,3 v 2 h 1 V 4 C 13,2.00514 11.03647,0 9,0 Z"
     id="rect5137-0"
     style="color:#bebebe;display:inline;overflow:visible;visibility:visible;fill:#666666;fill-opacity:1;fill-rule:nonzero;stroke:none;stroke-width:1;marker:none;enable-background:accumulate" />
  <path
     inkscape:connector-curvature="0"
     d="M 2,7 V 8 9 9.5 10.75 11 11.5 13 13.5 14 14.5 C 2,15.331 2.669,16 3.5,16 h 9 C 13.331,16 14,15.331 14,14.5 V 14 13.5 13 11.5 11 10.75 9.5 9 8 7 Z M 3,8 H 13 V 9 H 11.75 V 9.5 H 13 V 10.75 11 h -1.25 v 0.5 H 13 V 13 h -1.25 v 0.5 H 13 v 0.5 0.5 c 0,0.2943 -0.2057,0.5 -0.5,0.5 h -9 C 3.2057,15 3,14.7943 3,14.5 V 14 13.5 H 4.25 V 13 H 3 V 11.5 H 4.25 V 11 H 3 V 10.75 9.5 H 4.25 V 9 H 3 Z M 7.75,9 C 6.7805,9 6,9.7805 6,10.75 c 0,0.70227 0.40576,1.31463 1,1.59375 V 14 H 9 V 12.34375 C 9.59424,12.06463 10,11.45227 10,10.75 10,9.7805 9.2195,9 8.25,9 Z"
     id="rect7229"
     style="color:#000000;display:inline;overflow:visible;visibility:visible;fill:#666666;fill-opacity:1;stroke:none;stroke-width:1;marker:none;enable-background:accumulate" />
</svg>

<svg xmlns="http://www.w3.org/2000/svg" height="16" width="16"><path d="M7 0C4.984 0 3 2.026 3 4v2h1V4c0-1.662 1.338-3 3-3h2c1.662 0 3 1.338 3 3v2h1V4c0-1.995-1.964-4-4-4z" style="marker:none" color="#5d656b" overflow="visible" fill="#5d656b"/><path d="M2 7v7.5c0 .831.669 1.5 1.5 1.5h9c.831 0 1.5-.669 1.5-1.5V7zm1 1h10v1h-1.25v.5H13V11h-1.25v.5H13V13h-1.25v.5H13v1c0 .294-.206.5-.5.5h-9a.478.478 0 0 1-.5-.5v-1h1.25V13H3v-1.5h1.25V11H3V9.5h1.25V9H3zm4.75 1C6.78 9 6 9.78 6 10.75c0 .702.406 1.315 1 1.594V14h2v-1.656c.594-.28 1-.892 1-1.594C10 9.78 9.22 9 8.25 9z" style="marker:none" color="#000" overflow="visible" fill="#5d656b"/></svg>
